X: 130479
T: Maid that Left the Country
S: "Treoir"
Z: B.Black
M: 4/4
L: 1/8
R: reel
K: G
ed | cA A2 GEDE | G2 AE G3 A | B2 AB GE D2 | Bdd^c d2 :|
ed | Bdef g2 fg | a2 af g2 ed | Bdef g2 fg | afge d2 :|
